icons/solid/qrcode.svg

<svg width="24" height="24" viewBox="0 0 24 24" fill="none" xmlns="http://www.w3.org/2000/svg">
<path fill-rule="evenodd" clip-rule="evenodd" d="M5 3C3.89543 3 3 3.89543 3 5V7C3 8.10457 3.89543 9 5 9H7C8.10457 9 9 8.10457 9 7V5C9 3.89543 8.10457 3 7 3H5ZM13 4C13 3.44772 12.5523 3 12 3C11.4477 3 11 3.44772 11 4V5C11 5.55228 11.4477 6 12 6C12.5523 6 13 5.55228 13 5V4ZM17 3C15.8954 3 15 3.89543 15 5V7C15 8.10457 15.8954 9 17 9H19C20.1046 9 21 8.10457 21 7V5C21 3.89543 20.1046 3 19 3H17ZM13 9C13 8.44772 12.5523 8 12 8C11.4477 8 11 8.44772 11 9V11C11 12.1046 11.8954 13 13 13H14C14.5523 13 15 12.5523 15 12C15 11.4477 14.5523 11 14 11H13V9ZM4 11C3.44772 11 3 11.4477 3 12C3 12.5523 3.44772 13 4 13H8C8.55228 13 9 12.5523 9 12C9 11.4477 8.55228 11 8 11H4ZM18 11C17.4477 11 17 11.4477 17 12C17 12.5523 17.4477 13 18 13H20C20.5523 13 21 12.5523 21 12C21 11.4477 20.5523 11 20 11H18ZM5 15C3.89543 15 3 15.8954 3 17V19C3 20.1046 3.89543 21 5 21H7C8.10457 21 9 20.1046 9 19V17C9 15.8954 8.10457 15 7 15H5ZM13 15C11.8954 15 11 15.8954 11 17V20C11 20.5523 11.4477 21 12 21C12.5523 21 13 20.5523 13 20V17H14C14.5523 17 15 16.5523 15 16C15 15.4477 14.5523 15 14 15H13ZM18 15C17.4477 15 17 15.4477 17 16C17 16.5523 17.4477 17 18 17H20C20.5523 17 21 16.5523 21 16C21 15.4477 20.5523 15 20 15H18ZM16 19C15.4477 19 15 19.4477 15 20C15 20.5523 15.4477 21 16 21H20C20.5523 21 21 20.5523 21 20C21 19.4477 20.5523 19 20 19H16Z" fill="currentColor"/>
</svg>

<svg width="24" height="24" fill="none" xmlns="http://www.w3.org/2000/svg"><path fill-rule="evenodd" clip-rule="evenodd" d="M5 3a2 2 0 00-2 2v2a2 2 0 002 2h2a2 2 0 002-2V5a2 2 0 00-2-2H5zm8 1a1 1 0 10-2 0v1a1 1 0 102 0V4zm4-1a2 2 0 00-2 2v2a2 2 0 002 2h2a2 2 0 002-2V5a2 2 0 00-2-2h-2zm-4 6a1 1 0 10-2 0v2a2 2 0 002 2h1a1 1 0 100-2h-1V9zm-9 2a1 1 0 100 2h4a1 1 0 100-2H4zm14 0a1 1 0 100 2h2a1 1 0 100-2h-2zM5 15a2 2 0 00-2 2v2a2 2 0 002 2h2a2 2 0 002-2v-2a2 2 0 00-2-2H5zm8 0a2 2 0 00-2 2v3a1 1 0 102 0v-3h1a1 1 0 100-2h-1zm5 0a1 1 0 100 2h2a1 1 0 100-2h-2zm-2 4a1 1 0 100 2h4a1 1 0 100-2h-4z" fill="currentColor"/></svg>
